X:1
T:Title
%%score { ( 1 3 ) | ( 2 4 ) }
L:1/8
M:4/4
K:Bb
V:1 treble nm="Grand Piano"
V:3 treble 
V:2 bass 
V:4 bass 
V:1
 z4 z[Q:1/4=100] FDE | z DDD DBAG | F6 z2 | E6 z2 | z [F,B,][F,B,]B, B,[K:treble]FDE | F4 z4 | %6
[M:5/8] G- G3 z |[M:3/8] GCE |[M:4/4] A6 z2 |[M:7/8] B-B-B- B- B3 |[M:1/4][K:bass] (3F,G,A, | %11
[M:4/4] B,2[K:treble] c>c [FB]2 [DB]>[FB] | A2 F>G A2[K:bass] (3F,G,B, | c>c c>c [Fc]2 [FA]2 | %14
[M:3/4] [FB]2 B2 B2 |[M:1/4][K:bass] (3F,G,A, | %16
[M:4/4] B,2[K:treble] c>c [B,FB]2 (3[B,-DB-][B,EB][CFB] | [B,GB]2 G>A B2[K:bass] (3E,D,C, | %18
 B>B d>c [FB]2 [EA]2 |[M:5/8] [DB]- [DB]3 z |] %20
V:2
 z8 | z [B,,B,][D,B,][F,B,] .[B,,B,]2 z2 | z [B,,B,][D,B,][F,B,] .[B,,B,]2 z2 | %3
 z F,,A,,C, F,,[K:treble]AGF | D6 z2 | z [B,,B,][C,B,][F,B,] .[B,,B,]2 z2 | %6
[M:5/8] z [E,B,][G,B,] B,[E,B,E] |[M:3/8] z3 |[M:4/4] z [F,C][A,C]C .[F,C]2 z2 | %9
[M:7/8] z [B,,B,][D,B,] [F,B,] [B,,B,]3 |[M:1/4] z2 | %11
[M:4/4] z2 [F,A,F]>[F,A,F] [D,B,]2 [B,,B,]>[D,B,] | [CE]2 z2 z4 | %13
 [CF]>[CF] [A,F]>[A,F][K:bass] [C,A,]2 [E,C]2 |[M:3/4] B,2[K:treble] [B,F]2 [B,F]2 |[M:1/4] z2 | %16
[M:4/4] z2[K:bass] [F,A,F]>[F,F] D,2 (3B,,C,D, | z2[K:treble] [B,E]>[B,F] [B,G]2 z2 | %18
 [B,D]>[B,D][K:treble] [A,F]>[A,F][K:bass] [D,B,]2 [C,F,]2 |[M:5/8] [B,,F,]- [B,,F,]3 z |] %20
V:3
 x8 | F6 z2 | z DDD DFCD | z [A,C][A,C][A,C] .[F,A,C]2 z2 | x5[K:treble] x3 | z DDD [DF]DF_A | %6
[M:5/8] z EE EG |[M:3/8] x3 |[M:4/4] z EEE EFGF |[M:7/8] z DD D D3 |[M:1/4][K:bass] x2 | %11
[M:4/4] x2[K:treble] x6 | x6[K:bass] x2 | x8 |[M:3/4] x6 |[M:1/4][K:bass] x2 | %16
[M:4/4] x2[K:treble] x6 | x6[K:bass] x2 | x8 |[M:5/8] x5 |] %20
V:4
 x8 | x8 | x8 | x5[K:treble] x3 | z B,,D,F, .[B,,F,]2 z2 | x8 |[M:5/8] x5 |[M:3/8] x3 |[M:4/4] x8 | %9
[M:7/8] x7 |[M:1/4] x2 |[M:4/4] x8 | F,2- [F,-A,E]>[F,-B,E] [F,CE]2 z2 | A,2 F,2[K:bass] z4 | %14
[M:3/4] D,6[K:treble] |[M:1/4] x2 |[M:4/4] x2[K:bass] x6 | E,6[K:treble] z2 | %18
 F,2[K:treble] E,2[K:bass] z4 |[M:5/8] x5 |] %20

